public/icons/waze.svg

<svg width="88" height="88" viewBox="0 0 88 88" fill="none" xmlns="http://www.w3.org/2000/svg">
<path d="M75.3133 24.31C77.8433 27.7567 79.53 31.79 80.2633 36.0067C81.0333 40.59 80.6666 45.2467 79.1266 49.6467C77.6661 53.9446 75.1437 57.8039 71.7933 60.8667C69.3414 63.2075 66.5471 65.161 63.5066 66.66C65.01 70.5833 63.03 74.9833 59.1066 76.4867C58.2266 76.8167 57.31 77 56.3933 77C54.4268 76.992 52.5393 76.2247 51.125 74.8582C49.7107 73.4917 48.8789 71.6318 48.8033 69.6667H37.5466C37.1433 73.8467 33.4033 77 29.2233 76.5233C25.3366 76.1567 22.4033 72.93 22.33 69.0433C22.3666 68.3467 22.4766 67.6133 22.6966 66.9533C16.8728 65.015 11.7639 61.375 8.02998 56.5033C6.81998 54.89 7.18665 52.58 8.87331 51.3333C9.53331 50.82 10.34 50.5267 11.1833 50.5267C13.8233 50.5267 14.85 49.61 15.4733 48.2167C16.3533 45.5767 16.8666 42.8267 16.9033 40.04C17.0133 38.0967 17.2333 36.19 17.5266 34.2833C18.8118 27.9351 22.3552 22.2682 27.5 18.3333C33.5866 13.5667 41.03 11 48.73 11C53.9733 11 59.1433 12.2833 63.8 14.6667C68.3505 16.919 72.2977 20.2251 75.3133 24.31ZM61.3066 63.47C67.8333 60.5 72.9667 55.1467 75.4967 48.4367C81.4366 30.3233 66 14.85 48.73 14.85C47.4466 14.85 46.1266 14.9233 44.8433 15.1067C34.32 16.5 23.4666 23.8333 21.3033 34.8333C19.91 42.1667 22 54.23 11.1833 54.23C14.6666 58.6667 19.5066 62.0767 24.97 63.69C28.0866 60.9033 32.89 61.1967 35.7133 64.35C36.1166 64.79 36.4466 65.2667 36.6666 65.78H49.6833C51.59 62.04 56.21 60.5 59.95 62.48C60.5 62.7733 60.8666 63.1033 61.3066 63.47ZM40.2233 37.8033C38.0966 37.9133 36.2266 36.3 36.1166 34.1367C36.0066 32.01 37.6566 30.1767 39.7833 30.03C41.91 29.92 43.78 31.57 43.89 33.9167C43.9096 34.4013 43.8329 34.8849 43.6642 35.3397C43.4956 35.7944 43.2385 36.2111 42.9077 36.5658C42.5769 36.9205 42.179 37.206 41.7371 37.4058C41.2952 37.6057 40.8181 37.7158 40.3333 37.73L40.2233 37.8033ZM57.42 37.8033C55.2933 37.9133 53.4233 36.3 53.3133 34.1367C53.1666 32.01 54.8533 30.1767 56.98 30.03C59.1066 29.92 60.9766 31.57 61.0866 33.9167C61.16 35.9333 59.5833 37.6567 57.42 37.73V37.8033ZM35.6033 44.2567C35.3833 43.23 36.08 42.1667 37.1066 41.9833C38.1333 41.8 39.16 42.46 39.38 43.4867C40.0036 45.4628 41.2783 47.1694 42.9963 48.328C44.7143 49.4867 46.7742 50.029 48.84 49.8667C53.02 50.0867 56.8333 47.52 58.2633 43.56C58.7766 42.6067 59.95 42.1667 60.8666 42.7167C61.5266 43.0833 61.93 43.7067 61.93 44.44C61.2333 47.0433 59.62 49.3167 57.42 50.8933C54.89 52.6533 51.92 53.6433 48.84 53.68H48.4366C42.46 53.9367 37.07 50.0133 35.4933 44.22L35.6033 44.2567Z" fill="white"/>
</svg>

<svg xmlns="http://www.w3.org/2000/svg" width="88" height="88" fill="none"><path fill="#fff" d="M75.313 24.31c2.53 3.447 4.217 7.48 4.95 11.697.77 4.583.404 9.24-1.136 13.64a26.95 26.95 0 0 1-7.334 11.22 33.4 33.4 0 0 1-8.286 5.793c1.503 3.923-.477 8.323-4.4 9.827a7.7 7.7 0 0 1-2.714.513 7.627 7.627 0 0 1-7.59-7.333H37.547c-.404 4.18-4.144 7.333-8.324 6.856-3.886-.366-6.82-3.593-6.893-7.48.037-.696.147-1.43.367-2.09A30.7 30.7 0 0 1 8.03 56.503c-1.21-1.613-.843-3.923.843-5.17a3.76 3.76 0 0 1 2.31-.806c2.64 0 3.667-.917 4.29-2.31.88-2.64 1.394-5.39 1.43-8.177.11-1.943.33-3.85.624-5.757a26.77 26.77 0 0 1 9.973-15.95A34.36 34.36 0 0 1 48.73 11c5.243 0 10.413 1.283 15.07 3.667a31.9 31.9 0 0 1 11.513 9.643M61.307 63.47c6.526-2.97 11.66-8.323 14.19-15.033C81.437 30.323 66 14.85 48.73 14.85a28 28 0 0 0-3.887.257C34.32 16.5 23.467 23.833 21.303 34.833 19.91 42.167 22 54.23 11.183 54.23c3.484 4.437 8.324 7.847 13.787 9.46 3.117-2.787 7.92-2.493 10.743.66.404.44.734.917.954 1.43h13.016c1.907-3.74 6.527-5.28 10.267-3.3.55.293.917.623 1.357.99M40.223 37.803c-2.126.11-3.996-1.503-4.106-3.666-.11-2.127 1.54-3.96 3.666-4.107 2.127-.11 3.997 1.54 4.107 3.887a3.665 3.665 0 0 1-3.557 3.813zm17.197 0c-2.127.11-3.997-1.503-4.107-3.666-.146-2.127 1.54-3.96 3.667-4.107 2.127-.11 3.997 1.54 4.107 3.887.073 2.016-1.504 3.74-3.667 3.813zm-21.817 6.454c-.22-1.027.477-2.09 1.504-2.274 1.026-.183 2.053.477 2.273 1.504a9.17 9.17 0 0 0 9.46 6.38c4.18.22 7.993-2.347 9.423-6.307.514-.953 1.687-1.393 2.604-.843.66.366 1.063.99 1.063 1.723-.697 2.603-2.31 4.877-4.51 6.453-2.53 1.76-5.5 2.75-8.58 2.787h-.403a12.855 12.855 0 0 1-12.944-9.46z"/></svg>
